symbols/web/add_photo_alternate/materialsymbolsoutlined/add_photo_alternate_wght300gradN25_24px.svg

<svg xmlns="http://www.w3.org/2000/svg" height="24" width="24"><path d="M13.85 3.675v1.4H5.175q-.125 0-.212.087-.088.088-.088.238v13.2q0 .125.088.212.087.088.212.088h13.2q.15 0 .225-.088.075-.087.075-.212V9.925h1.4V18.6q0 .7-.487 1.2-.488.5-1.213.5h-13.2q-.7 0-1.2-.5t-.5-1.2V5.375q0-.7.5-1.2t1.2-.5Zm4.7-.45v2h1.975v1.4H18.55V8.6h-1.4V6.625h-1.975v-1.4h1.975v-2ZM6.675 16.7H16.95l-3.175-4.25L11 16.05l-1.95-2.475Zm-1.8-11.625V18.9 5.075Z"/></svg>

<svg xmlns="http://www.w3.org/2000/svg" height="24" width="24"><path d="M13.85 3.675V5.075H5.175Q5.05 5.075 4.963 5.162Q4.875 5.25 4.875 5.4V18.6Q4.875 18.725 4.963 18.812Q5.05 18.9 5.175 18.9H18.375Q18.525 18.9 18.6 18.812Q18.675 18.725 18.675 18.6V9.925H20.075V18.6Q20.075 19.3 19.588 19.8Q19.1 20.3 18.375 20.3H5.175Q4.475 20.3 3.975 19.8Q3.475 19.3 3.475 18.6V5.375Q3.475 4.675 3.975 4.175Q4.475 3.675 5.175 3.675ZM18.55 3.225V5.225H20.525V6.625H18.55V8.6H17.15V6.625H15.175V5.225H17.15V3.225ZM6.675 16.7H16.95L13.775 12.45L11 16.05L9.05 13.575ZM4.875 5.075V7.95V9.925V18.6Q4.875 18.725 4.875 18.812Q4.875 18.9 4.875 18.9Q4.875 18.9 4.875 18.812Q4.875 18.725 4.875 18.6V5.4Q4.875 5.25 4.875 5.162Q4.875 5.075 4.875 5.075Z"/></svg>
